X:1
T:Improvisation Etude in Eb
T:Improvisation Etude in Eb
%%score { 1 | 2 }
L:1/8
Q:1/4=140
M:4/4
K:Eb
V:1 treble nm="Piano" snm="Pno."
V:2 bass 
V:1
|:"^Swing" G^F (3GBc ecef | ^fgfg (3ege B[Ae] | GBcB eE z2 | z d_d_c BAF^F | GBfe- e2 z2 | %5
 z _dcd agf=e | g=e (3fac' _e'c'e'_g'- | g'=g'_g'=g' e'/g'/e'/_d'/ b[ae'] | gbc'b e'e^fg | %9
 (3a=ab (3^fge Be=fe | z g_g=e (3f_ec _AF | _G=G_G=G E(3G/E/_D/ B,[A,E] | G,B,CB, E4 | %13
 z C (3EFE GC z2 | z =B, (3CEG (3AGA (3GEC | DFA_c _BAF^F :| G4 z4 |] %17
V:2
|: [E,G,B,D]4 z [E,G,B,D] z2 | z [=E,B,_E]- [E,B,E]2 z4 | [E,A,C]4 z2 z [=D,A,_D]- | [D,A,D]8 | %4
 E,,4 z [F,G,B,D] z [=E,B,_D]- | [E,B,D]2 z2 z4 | [E,A,C]4 z2 z [D,A,C]- | [D,A,C]8 | %8
 [F,G,B,D]4 z [F,G,B,D] z2 | [=E,B,_D]8 | [E,G,A,C]8 | [D,A,C]4 z4 | E,,4 z E,, z _D,, | %13
 C,,6 (3C,G,,_G,, | F,,4 [C,A,]4 | [B,,A,]8 :| [E,G,B,D]4 z4 |] %17

